packages/kaspersky-hexa-ui-icons/src/iconsSVGs/28x20/FlagAl.svg

<svg width="28" height="20" viewBox="0 0 28 20" fill="none" xmlns="http://www.w3.org/2000/svg">
<g clip-path="url(#clip0_5138_291)">
<mask id="mask0_5138_291" style="mask-type:luminance" maskUnits="userSpaceOnUse" x="0" y="0" width="28" height="20">
<path d="M0 2C0 0.895431 0.895431 0 2 0H26C27.1046 0 28 0.895431 28 2V18C28 19.1046 27.1046 20 26 20H2C0.895431 20 0 19.1046 0 18V2Z" fill="white"/>
</mask>
<g mask="url(#mask0_5138_291)">
<rect width="28" height="20" fill="#EE343C"/>
<path fill-rule="evenodd" clip-rule="evenodd" d="M12.3865 4.38644C12.1617 4.16173 11.8097 4.12686 11.5452 4.30314L10.9558 4.69608C10.5299 4.98002 10.5697 5.61814 11.0275 5.84706L12.2981 6.48238C12.524 6.59531 12.6667 6.82615 12.6667 7.07867V7.33331C12.6667 7.7015 12.3682 7.99998 12 7.99998H11.4907C11.3872 7.99998 11.2851 7.97588 11.1926 7.92959L9.09644 6.88153C8.83978 6.7532 8.5298 6.80351 8.32689 7.00641L7.98736 7.34594C7.6656 7.6677 7.75363 8.21013 8.16063 8.41363L9.10457 8.8856C9.50355 9.08509 9.53818 9.64119 9.16701 9.88863C8.73635 10.1757 8.8678 10.8402 9.37534 10.9417L9.93728 11.0541C10.4768 11.162 10.6346 11.8574 10.1944 12.1875L9.69128 12.5648C9.36305 12.811 9.53715 13.3333 9.94743 13.3333C9.98234 13.3333 10.0171 13.329 10.051 13.3206L11.3128 13.0051C11.7912 12.8855 12.1661 13.4175 11.8925 13.8278C11.6535 14.1864 11.9105 14.6666 12.3415 14.6666H12.9249C13.1688 14.6666 13.3853 14.8227 13.4625 15.0541C13.6347 15.5706 14.3653 15.5706 14.5375 15.0541C14.6146 14.8227 14.8312 14.6666 15.075 14.6666H15.6585C16.0895 14.6666 16.3465 14.1864 16.1074 13.8278C15.8339 13.4175 16.2088 12.8855 16.6872 13.0051L17.949 13.3206C17.9829 13.329 18.0176 13.3333 18.0525 13.3333C18.4628 13.3333 18.6369 12.811 18.3087 12.5648L17.8056 12.1875C17.3654 11.8574 17.5232 11.162 18.0627 11.0541L18.6246 10.9417C19.1322 10.8402 19.2636 10.1757 18.833 9.88863C18.4618 9.64119 18.4964 9.08509 18.8954 8.8856L19.8394 8.41363C20.2464 8.21013 20.3344 7.6677 20.0126 7.34594L19.6731 7.00641C19.4702 6.80351 19.1602 6.7532 18.9035 6.88153L16.8074 7.92959C16.7149 7.97588 16.6128 7.99998 16.5093 7.99998H16C15.6318 7.99998 15.3333 7.7015 15.3333 7.33331V7.07867C15.3333 6.82615 15.476 6.59532 15.7018 6.48239C16.0944 6.2861 16.5621 6.05227 16.9727 5.84695C17.4306 5.61803 17.4701 4.98002 17.0441 4.69608L16.4547 4.30314C16.1903 4.12686 15.8382 4.16173 15.6135 4.38644L14.4714 5.52857C14.211 5.78892 13.7889 5.78892 13.5286 5.52857L12.3865 4.38644Z" fill="#262626"/>
</g>
</g>
<defs>
<clipPath id="clip0_5138_291">
<rect width="28" height="20" fill="white"/>
</clipPath>
</defs>
</svg>

<svg xmlns="http://www.w3.org/2000/svg" width="28" height="20" fill="none" viewBox="0 0 28 20"><g clip-path="url(#a)"><mask id="b" width="28" height="20" x="0" y="0" maskUnits="userSpaceOnUse" style="mask-type:luminance"><path fill="#fff" d="M0 2C0 .8954.8954 0 2 0h24c1.1046 0 2 .8954 2 2v16c0 1.1046-.8954 2-2 2H2c-1.1046 0-2-.8954-2-2z"/></mask><g mask="url(#b)"><path fill="#ee343c" d="M0 0h28v20H0z"/><path fill="#262626" fill-rule="evenodd" d="M12.3865 4.3864a.667.667 0 0 0-.8413-.0833l-.5894.393c-.4259.284-.3861.922.0717 1.151l1.2706.6353a.667.667 0 0 1 .3686.5963v.2546A.6667.6667 0 0 1 12 8h-.5093a.666.666 0 0 1-.2981-.0704l-2.0962-1.048a.667.667 0 0 0-.7695.1248l-.3395.3395c-.3218.3218-.2338.8642.1732 1.0677l.944.472c.399.1995.4336.7556.0624 1.003-.4306.2871-.2992.9516.2083 1.0531l.562.1124c.5395.1079.6973.8033.2571 1.1334l-.5031.3773c-.3283.2462-.1541.7685.2561.7685a.43.43 0 0 0 .1036-.0127l1.2618-.3155c.4784-.1196.8533.4124.5797.8227-.239.3586.018.8388.449.8388h.5834a.567.567 0 0 1 .5376.3875c.1722.5165.9028.5165 1.075 0a.567.567 0 0 1 .5375-.3875h.5835c.431 0 .688-.4802.4489-.8388-.2735-.4103.1014-.9423.5798-.8227l1.2618.3155a.43.43 0 0 0 .1035.0127c.4103 0 .5844-.5223.2562-.7685l-.5031-.3773c-.4402-.3301-.2824-1.0255.2571-1.1334l.5619-.1124c.5076-.1015.639-.766.2084-1.053-.3712-.2475-.3366-.8036.0624-1.0031l.944-.472c.407-.2035.495-.7459.1732-1.0677l-.3395-.3395a.667.667 0 0 0-.7696-.1249l-2.0961 1.048A.666.666 0 0 1 16.5093 8H16a.6667.6667 0 0 1-.6667-.6667v-.2546a.667.667 0 0 1 .3685-.5963l1.2709-.6355c.4579-.2289.4974-.8669.0714-1.1508l-.5894-.393a.667.667 0 0 0-.8412.0833l-1.1421 1.1422a.6667.6667 0 0 1-.9428 0z" clip-rule="evenodd"/></g></g><defs><clipPath id="a"><path fill="#fff" d="M0 0h28v20H0z"/></clipPath></defs></svg>
